X:05
T:Blue Bell of Scotland. TJD.05
M:4/4
L:1/8
Q:1/4=120
S:T.J.Dixon MS1, Lincolnshire, 1798
R:Air
A:Lincolnshire, Holton le Moor
N:As written. There are one or two minor inconsistences which aren’t worth fixing.
Z:vmp.R.Greig2010
K:D
[fD]|[f2D2][cA][BG][A2F2](3[BG][cA][dB]|[FD]>[FD] [GE][EC]D3 [dF]|\
“$”[d2F2][cA][BG][A2F2]z [DF]>BG|!
[FD]>[FD][GD][EC]D3″$”[dF]|[d2F2][cA][BG]A2(3Bc d|F>FGED2|!
w:Oh where and oh where i-s your High-land Lad-die gone
[dF]|{e}[d2F2][cA] [cA] [BG] [AF] (3[BG]cc d|[FD]> [FD][GE][E2C2]D3|!
w:Oh where a-nd oh where i–s your High-land lad-die gone
A|F> D F Ad2(3Bc d|c >A [eB] G A2 (3AB c|!
w:He’s gone to fight the French f-or King George up-on the Throne and its
e/d2c/BA2GB/G/|F F G E D3 A|!
w:O in m-y Heart I wi- sh him safe at Ho-me He’s
F> D F A[d2F2] (3[B/F/] c/ d/|c >A B ^G A2 (3A/B/c/|!
w:gone to fight the French f-or King George up-on the Throne and i-ts
e/d2[cA] [BG][A2F2D2][GE]B/G/|[FD] [FD] [GE] [EC] D2 A2:|]!
w:O in m-y Heart I wi- sh him safe at Ho–me

